X:128
T:Hector MacKenzie's Jig
C:Dan Hughie MacEachern
S:Keep It Up: On Safari
M:6/8
L:1/8
R:jig
K:D
d3 def | ecc cde | d3 def | fef gfe |
d3 def | ecc cde | afd gec |1 ddd dAc :|2 ddd dfg |:
afd dfa | gec ceg | afd dfa | fef g2e |
afd dfa | gec ceg | afd gec |1 ddd dfg :|2 ddd dAc |]
